X: 21123
Q: "Jig time."
M: 6/8
L: 1/8
K: D
c |\
def gea | fdd d2A | def gea | fdB (B2c) |\
def gea | fdf gfe | fda gfe |\
[1 fdB Bcd !segno!:|[1 fdd "^Fin."d2 H|]


